!!!OTL: 585. Alles umsonst.
!!!ARE: Europa, Mitteleuropa, Deutschland, Hessen, Odenwald; Bergstrasse
!!!SCT: E0585
!!!TXL: @@DE
!!!YEM: Copyright 1995, estate of Helmut Schaffrath.
**kern	**text
*ICvox	*
*M4/4	*
*met(c)	*
*k[b-e-a-]	*
*E-:	*
!LO:TX:a:t=Mäßig.	!
!LO:TX:a:t=Melodie. Wenn ich an den letʒten Abend rc.	!
{8e-L	Was
8gJ	.
=1	=1
4b-	hab
8b-	ich
8b-	denn
8b-L	mei-
8ccJ	.
8b-	-nem
8a-	Feins-
=2	=2
8a-L	-lieb-
8gJ	.
8g	-chen
8g	ge-
(4b-	-than?
8a-)}	.
{8g	ſie
=3	=3
4f	geht
8f	ja
8f	vor-
4cc	-ü-
8b-	-ber
8a-	und
=4	=4
8a-L	ſchaut
8gJ	.
8g	mich
8g	nicht
4g	an.
8r}	.
{8b-	Sie
=5	=5
8b-L	ſchlägt
8fJ	.
8f	ih-
8f	-re
4b-	Aeug-
8b-	-lein
8b-	wohl
=6	=6
4cc	un-
4cc	-ter
4dd	ſich
8r}	.
{8b-	und
=7	=7
4ee-	ſieht
8dd	ei-
8cc	-nen
8.b-L	An-
16ccJ	.
8b-	-dern
8a-	viel
=8	=8
4g	lie-
8f	-ber
8f	als
4e-}	mich.
==	==
!!!AGN: Liebes - Lied
!!!ONB: ESAC (Essen Associative Code) Database: ERK1
!!!AMT: simple quadruple
!!!AIN: vox
!!!EED: Helmut Schaffrath
!!!EEV: 1.0
!!!GTL: Liebeslieder [Neuere (aus dem 18. bis 19. Jahrh.) - Liebeslust]
!!!URL-scan: https://rosdok.uni-rostock.de/mcrviewer/recordIdentifier/rosdok_ppn745177662/iview2/phys_0413.iview2?x=-128.77276441889308&y=217.00369620206766&scale=0.5870222003877485&rotation=0&layout=singlePageLayout
!!!ENC: Anna Maria Matuszewska
!!!EEV: 2024/11/12
*-	*-
